X:1
T:Sully's No. 6
R:reel
M:4/4
L:1/8
K:A
|:~A2AB cABA|FE~E2 FECE|~A2AB cefe|afec BFAF|
|EA~A2 FAEA|ce~e2 cebe|affe ~f2af|1 ecBc AFEF:|2 ecBc ABcd|]
|:~e2ec ~f2ec|BdcB AF~F2|ce~e2 fece|~f2fa afed|
|ce~e2 feaf|eAcA BAFA|~a2ae ~f2af|1 ecBc ABcd:|2 ecBc AFEF|]